images/css3.svg

<svg width="100" height="100" viewBox="0 0 100 100" fill="none" xmlns="http://www.w3.org/2000/svg">
<g clip-path="url(#clip0)">
<path d="M100 50C100 66.0775 92.4102 80.3836 80.6184 89.5307C72.1592 96.0939 61.5367 100 50 100C38.4633 100 27.8408 96.0939 19.3816 89.5307C7.58984 80.3836 0 66.0775 0 50C0 22.3857 22.3857 0 50 0C77.6143 0 100 22.3857 100 50Z" fill="#F2F2F2"/>
<path d="M86.3265 23.3348L80.6183 89.5307C72.1591 96.094 61.5366 100 49.9999 100C38.4632 100 27.8407 96.094 19.3815 89.5307L13.6733 23.3348H86.3265Z" fill="#006BC0"/>
<path d="M49.9995 29.5582V98.6906L73.8807 91.9486L79.2081 29.5582H49.9995Z" fill="#0096DC"/>
<path d="M71.1008 56.599H53.877L71.8748 47.4394L72.6526 38.2316H27.3463L28.1391 47.6193H46.326L28.876 56.3445L29.6879 65.9615H60.8157L59.7953 77.4152L49.9994 80.0684L39.7953 77.2111L39.5403 70.0684H30.0348L31.2239 84.15L49.9994 89.4561L68.7748 84.15L71.1014 56.5975L71.1008 56.599Z" fill="white"/>
<path d="M32.2953 13.1297V6.59904H41.683V3.06174H28.8939V16.667H41.683V13.1297H32.2953Z" fill="#222123"/>
<path d="M47.1762 8.38478V6.75197H56.5131V6.59904V3.06174H43.7239V11.4969H52.8905V13.1297H43.7239V16.667H56.5131V13.1297V8.38478H47.1762Z" fill="#222123"/>
<path d="M61.7679 8.38478V6.75197H71.1046V6.59904V3.06174H58.3156V11.4969H67.4822V13.1297H58.3156V16.667H71.1046V13.1297V8.38478H61.7679Z" fill="#222123"/>
</g>
<defs>
<clipPath id="clip0">
<rect width="100" height="100" fill="white"/>
</clipPath>
</defs>
</svg>

<?xml version="1.0" encoding="utf-8"?>
<!-- Generator: Adobe Illustrator 22.0.0, SVG Export Plug-In . SVG Version: 6.00 Build 0)  -->
<svg version="1.1" id="Capa_1" xmlns="http://www.w3.org/2000/svg" xmlns:xlink="http://www.w3.org/1999/xlink" x="0px" y="0px"
	 viewBox="0 0 100 100" style="enable-background:new 0 0 100 100;" xml:space="preserve">
<style type="text/css">
	.st0{fill:none;}
	.st1{fill:#006BC0;}
	.st2{fill:#0096DC;}
	.st3{fill:#FFFFFF;}
	.st4{fill:#EDFFE9;}
</style>
<rect class="st0" width="100" height="100"/>
<path class="st1" d="M86.3,23.3l-5.7,66.2C72.2,96.1,61.5,100,50,100s-22.2-3.9-30.6-10.5l-5.7-66.2H86.3z"/>
<path class="st2" d="M50,29.6v69.1l23.9-6.7l5.3-62.4H50z"/>
<path class="st3" d="M71.1,56.6H53.9l18-9.2l0.8-9.2H27.3l0.8,9.4h18.2l-17.5,8.7l0.8,9.6h31.1l-1,11.5L50,80.1l-10.2-2.9l-0.3-7.1
	H30l1.2,14.1L50,89.5l18.8-5.3L71.1,56.6L71.1,56.6z"/>
<path class="st4" d="M32.3,13.1V6.6h9.4V3.1H28.9v13.6h12.8v-3.5H32.3z"/>
<path class="st3" d="M47.2,8.4V6.8h9.3V6.6V3.1H43.7v8.4h9.2v1.6h-9.2v3.5h12.8v-3.5V8.4H47.2z"/>
<path class="st3" d="M61.8,8.4V6.8h9.3V6.6V3.1H58.3v8.4h9.2v1.6h-9.2v3.5h12.8v-3.5V8.4H61.8z"/>
</svg>
